svgs/spark_email.svg

<svg width="192" height="192" viewBox="0 0 192 192" fill="none" xmlns="http://www.w3.org/2000/svg"><path fill-rule="evenodd" clip-rule="evenodd" d="M96 8a6.001 6.001 0 0 1 5.305 3.196l74 140a6 6 0 0 1-7.323 8.454l-51.512-18.397-15.423 23.992a6 6 0 0 1-10.094 0L75.53 141.253 24.018 159.65a5.998 5.998 0 0 1-7.323-8.454l74-140A6 6 0 0 1 96 8ZM34.517 143.158l41.465-14.808a6 6 0 0 1 7.065 2.405L90 141.571V38.191L34.517 143.158ZM102 38.191v103.38l6.953-10.816a6 6 0 0 1 7.065-2.405l41.465 14.808L102 38.191Z" fill="#000"/></svg>

<svg id="vector" xmlns="http://www.w3.org/2000/svg" width="192" height="192" viewBox="0 0 192 192"><path fill="#000000" d="M96,8C98.224,8 100.265,9.23 101.305,11.196L175.305,151.196C176.461,153.384 176.156,156.058 174.535,157.928C172.915,159.799 170.313,160.483 167.982,159.65L116.47,141.253L101.047,165.245C99.943,166.962 98.042,168 96,168C93.958,168 92.057,166.962 90.953,165.245L75.53,141.253L24.018,159.65C21.687,160.483 19.085,159.799 17.465,157.928C15.844,156.058 15.539,153.384 16.695,151.196L90.695,11.196C91.735,9.23 93.776,8 96,8ZM34.517,143.158L75.982,128.35C78.61,127.411 81.538,128.408 83.047,130.755L90,141.571V38.191L34.517,143.158ZM102,38.191V141.571L108.953,130.755C110.462,128.408 113.39,127.411 116.018,128.35L157.483,143.158L102,38.191Z" fill-rule="evenodd" id="path_0"/></svg>
